static/img/kroki/a87a7b0457c5c35caaf5a668b0680fd4.svg

<?xml version="1.0" encoding="us-ascii" standalone="no"?><svg xmlns="http://www.w3.org/2000/svg" xmlns:xlink="http://www.w3.org/1999/xlink" contentStyleType="text/css" height="374px" preserveAspectRatio="none" style="width:320px;height:374px;" version="1.1" viewBox="0 0 320 374" width="320px" zoomAndPan="magnify"><defs/><g><!--class account--><g id="elem_account"><rect codeLine="23" fill="#3D176E" height="39.7891" id="account" rx="2.5" ry="2.5" style="stroke:#000D19;stroke-width:0.5;" width="107" x="203" y="167.79"/><ellipse cx="218" cy="187.6845" fill="#ADD1B2" rx="11" ry="11" style="stroke:#181818;stroke-width:1.0;"/><path d="M220.9688,193.3252 Q220.3906,193.622 219.75,193.7627 Q219.1094,193.9189 218.4063,193.9189 Q215.9063,193.9189 214.5781,192.2783 Q213.2656,190.622 213.2656,187.497 Q213.2656,184.372 214.5781,182.7158 Q215.9063,181.0595 218.4063,181.0595 Q219.1094,181.0595 219.75,181.2158 Q220.4063,181.372 220.9688,181.6689 L220.9688,184.3877 Q220.3438,183.8095 219.75,183.5439 Q219.1563,183.2627 218.5313,183.2627 Q217.1875,183.2627 216.5,184.3408 Q215.8125,185.4033 215.8125,187.497 Q215.8125,189.5908 216.5,190.6689 Q217.1875,191.7314 218.5313,191.7314 Q219.1563,191.7314 219.75,191.4658 Q220.3438,191.1845 220.9688,190.6064 L220.9688,193.3252 Z " fill="#000000"/><text fill="#D9B8FF" font-family="Helvetica" font-size="17" lengthAdjust="spacing" textLength="65" x="237" y="193.5698">account</text></g><!--class resource--><g id="elem_resource"><rect codeLine="26" fill="#3D176E" height="39.7891" id="resource" rx="2.5" ry="2.5" style="stroke:#000D19;stroke-width:0.5;" width="113" x="200" y="7"/><ellipse cx="215" cy="26.8945" fill="#ADD1B2" rx="11" ry="11" style="stroke:#181818;stroke-width:1.0;"/><path d="M217.9688,32.5352 Q217.3906,32.832 216.75,32.9727 Q216.1094,33.1289 215.4063,33.1289 Q212.9063,33.1289 211.5781,31.4883 Q210.2656,29.832 210.2656,26.707 Q210.2656,23.582 211.5781,21.9258 Q212.9063,20.2695 215.4063,20.2695 Q216.1094,20.2695 216.75,20.4258 Q217.4063,20.582 217.9688,20.8789 L217.9688,23.5977 Q217.3438,23.0195 216.75,22.7539 Q216.1563,22.4727 215.5313,22.4727 Q214.1875,22.4727 213.5,23.5508 Q212.8125,24.6133 212.8125,26.707 Q212.8125,28.8008 213.5,29.8789 Q214.1875,30.9414 215.5313,30.9414 Q216.1563,30.9414 216.75,30.6758 Q217.3438,30.3945 217.9688,29.8164 L217.9688,32.5352 Z " fill="#000000"/><text fill="#D9B8FF" font-family="Helvetica" font-size="17" lengthAdjust="spacing" textLength="71" x="234" y="32.7798">resource</text></g><!--class scarf_organization--><g id="elem_scarf_organization"><rect codeLine="29" fill="#3D176E" height="39.7891" id="scarf_organization" rx="2.5" ry="2.5" style="stroke:#000D19;stroke-width:0.5;" width="194" x="25.5" y="328.58"/><ellipse cx="40.5" cy="348.4745" fill="#ADD1B2" rx="11" ry="11" style="stroke:#181818;stroke-width:1.0;"/><path d="M43.4688,354.1152 Q42.8906,354.412 42.25,354.5527 Q41.6094,354.7089 40.9063,354.7089 Q38.4063,354.7089 37.0781,353.0683 Q35.7656,351.412 35.7656,348.287 Q35.7656,345.162 37.0781,343.5058 Q38.4063,341.8495 40.9063,341.8495 Q41.6094,341.8495 42.25,342.0058 Q42.9063,342.162 43.4688,342.4589 L43.4688,345.1777 Q42.8438,344.5995 42.25,344.3339 Q41.6563,344.0527 41.0313,344.0527 Q39.6875,344.0527 39,345.1308 Q38.3125,346.1933 38.3125,348.287 Q38.3125,350.3808 39,351.4589 Q39.6875,352.5214 41.0313,352.5214 Q41.6563,352.5214 42.25,352.2558 Q42.8438,351.9745 43.4688,351.3964 L43.4688,354.1152 Z " fill="#000000"/><text fill="#D9B8FF" font-family="Helvetica" font-size="17" lengthAdjust="spacing" textLength="152" x="59.5" y="354.3598">scarf_organization</text></g><!--class scarf_resource--><g id="elem_scarf_resource"><rect codeLine="32" fill="#3D176E" height="39.7891" id="scarf_resource" rx="2.5" ry="2.5" style="stroke:#000D19;stroke-width:0.5;" width="161" x="7" y="167.79"/><ellipse cx="22" cy="187.6845" fill="#ADD1B2" rx="11" ry="11" style="stroke:#181818;stroke-width:1.0;"/><path d="M24.9688,193.3252 Q24.3906,193.622 23.75,193.7627 Q23.1094,193.9189 22.4063,193.9189 Q19.9063,193.9189 18.5781,192.2783 Q17.2656,190.622 17.2656,187.497 Q17.2656,184.372 18.5781,182.7158 Q19.9063,181.0595 22.4063,181.0595 Q23.1094,181.0595 23.75,181.2158 Q24.4063,181.372 24.9688,181.6689 L24.9688,184.3877 Q24.3438,183.8095 23.75,183.5439 Q23.1563,183.2627 22.5313,183.2627 Q21.1875,183.2627 20.5,184.3408 Q19.8125,185.4033 19.8125,187.497 Q19.8125,189.5908 20.5,190.6689 Q21.1875,191.7314 22.5313,191.7314 Q23.1563,191.7314 23.75,191.4658 Q24.3438,191.1845 24.9688,190.6064 L24.9688,193.3252 Z " fill="#000000"/><text fill="#D9B8FF" font-family="Helvetica" font-size="17" lengthAdjust="spacing" textLength="119" x="41" y="193.5698">scarf_resource</text></g><!--reverse link resource to account--><g id="link_resource_account"><path codeLine="35" d="M256.5,65.05 C256.5,95.57 256.5,136.9 256.5,167.46 " fill="none" id="resource-backto-account" style="stroke:#FFAF37;stroke-width:2.0;"/><polygon fill="none" points="256.5,47.05,250.5,65.05,262.5,65.05,256.5,47.05" style="stroke:#FFAF37;stroke-width:2.0;"/></g><!--reverse link account to scarf_organization--><g id="link_account_scarf_organization"><path codeLine="36" d="M228.73,221.5953 C202.97,252.1153 164.51,297.69 138.72,328.25 " fill="none" id="account-backto-scarf_organization" style="stroke:#FFAF37;stroke-width:2.0;"/><polygon fill="none" points="240.34,207.84,224.1449,217.7253,233.3151,225.4653,240.34,207.84" style="stroke:#FFAF37;stroke-width:2.0;"/></g><!--reverse link scarf_resource to scarf_organization--><g id="link_scarf_resource_scarf_organization"><path codeLine="37" d="M95.5961,225.4177 C102.3261,255.9377 111.53,297.69 118.26,328.25 " fill="none" id="scarf_resource-backto-scarf_organization" style="stroke:#FFAF37;stroke-width:2.0;"/><polygon fill="none" points="91.72,207.84,89.7368,226.7097,101.4553,224.1257,91.72,207.84" style="stroke:#FFAF37;stroke-width:2.0;"/></g><!--SRC=[XP1BRy8m48Jl-HMME2CbHMr0weL6gjeBgahlrSPUWqLYH-jD4RJzxuNoa8bv73tpUMTsvqQXmBhXbQYnBf5yuXV6Da1GYp6HMnQkSYHwMeCUv5tpsLc-2KoWHl62rHUoaT0bFkP6BYnwB-u2wmdaOaQkjMetdWcitrXeEQ2A2hmVCvCfMyQWZ1gLGwsxP7TeRw2o_04Zp952sYDfcgfir4LkHbtT-qXCpHf55XvjuXYZcb74FtMrvPO8IaQB7loB7Tz0AMDduZxGtdUTo2ATwDCvABVSqXeg7yPuHaB7gmQBQ2iS3PNEpyAlb-14RaydGCgDn-8xINxt4g5tBKaCDI-1zAUZ6LYp1ZREnkxfl-FhyQVVxnzoaaFUJet79frP5xa_]--></g></svg>

<svg xmlns="http://www.w3.org/2000/svg" width="320" height="374" viewBox="0 0 320 374"><rect width="107" height="39.789" x="203" y="167.79" fill="#3D176E" rx="2.5" ry="2.5" style="stroke:#000d19;stroke-width:.5"/><circle cx="218" cy="187.685" r="11" fill="#ADD1B2" style="stroke:#181818;stroke-width:1"/><path d="M220.969 193.325q-.578.297-1.219.438-.64.156-1.344.156-2.5 0-3.828-1.64-1.312-1.657-1.312-4.782t1.312-4.781q1.328-1.656 3.828-1.656.703 0 1.344.156.656.156 1.219.453v2.719q-.625-.578-1.219-.844-.594-.281-1.219-.281-1.344 0-2.031 1.078-.687 1.062-.687 3.156t.687 3.172q.688 1.062 2.031 1.062.625 0 1.219-.265.594-.281 1.219-.86z"/><text x="237" y="193.57" fill="#D9B8FF" font-family="Helvetica" font-size="17" textLength="65">account</text><rect width="113" height="39.789" x="200" y="7" fill="#3D176E" rx="2.5" ry="2.5" style="stroke:#000d19;stroke-width:.5"/><circle cx="215" cy="26.895" r="11" fill="#ADD1B2" style="stroke:#181818;stroke-width:1"/><path d="M217.969 32.535q-.578.297-1.219.438-.64.156-1.344.156-2.5 0-3.828-1.64-1.312-1.657-1.312-4.782t1.312-4.781q1.328-1.656 3.828-1.656.703 0 1.344.156.656.156 1.219.453v2.719q-.625-.578-1.219-.844-.594-.281-1.219-.281-1.344 0-2.031 1.078-.687 1.062-.687 3.156t.687 3.172q.688 1.062 2.031 1.062.625 0 1.219-.265.594-.281 1.219-.86z"/><text x="234" y="32.78" fill="#D9B8FF" font-family="Helvetica" font-size="17" textLength="71">resource</text><rect width="194" height="39.789" x="25.5" y="328.58" fill="#3D176E" rx="2.5" ry="2.5" style="stroke:#000d19;stroke-width:.5"/><circle cx="40.5" cy="348.474" r="11" fill="#ADD1B2" style="stroke:#181818;stroke-width:1"/><path d="M43.469 354.115q-.578.297-1.219.438-.64.156-1.344.156-2.5 0-3.828-1.64-1.312-1.657-1.312-4.782t1.312-4.781q1.328-1.656 3.828-1.656.703 0 1.344.156.656.156 1.219.453v2.719q-.625-.579-1.219-.844-.594-.281-1.219-.281-1.343 0-2.031 1.078-.687 1.062-.687 3.156t.687 3.172q.688 1.062 2.031 1.062.625 0 1.219-.265.594-.281 1.219-.86z"/><text x="59.5" y="354.36" fill="#D9B8FF" font-family="Helvetica" font-size="17" textLength="152">scarf_organization</text><rect width="161" height="39.789" x="7" y="167.79" fill="#3D176E" rx="2.5" ry="2.5" style="stroke:#000d19;stroke-width:.5"/><circle cx="22" cy="187.685" r="11" fill="#ADD1B2" style="stroke:#181818;stroke-width:1"/><path d="M24.969 193.325q-.578.297-1.219.438-.64.156-1.344.156-2.5 0-3.828-1.64-1.312-1.657-1.312-4.782t1.312-4.781q1.328-1.656 3.828-1.656.703 0 1.344.156.656.156 1.219.453v2.719q-.625-.578-1.219-.844-.594-.281-1.219-.281-1.343 0-2.031 1.078-.687 1.062-.687 3.156t.687 3.172q.688 1.062 2.031 1.062.625 0 1.219-.265.594-.281 1.219-.86z"/><text x="41" y="193.57" fill="#D9B8FF" font-family="Helvetica" font-size="17" textLength="119">scarf_resource</text><path fill="none" d="M256.5 65.05v102.41m0-120.41-6 18h12zm-27.77 174.545c-25.76 30.52-64.22 76.095-90.01 106.655m101.62-120.41-16.195 9.885 9.17 7.74zM95.596 225.418c6.73 30.52 15.934 72.272 22.664 102.832M91.72 207.84l-1.983 18.87 11.718-2.584z" style="stroke:#ffaf37;stroke-width:2"/></svg>
